!!!!SEGMENT: pl-wumfc--n8918--001-001_szymanowski-karol--dwanascie-piesni-op-17-i-wczesnym-rankiem-spojrz-jak-ku-gwiazdom.krn
!!!cenid: 19xx:73
!!!COM: Szymanowski, Karol
!!!COM-rismID: pe30106403
!!!CDT: 1882-1937
!!!CNT: Polish
!!!GTL: Dwanaście pieśni Op. 17
!!!OTL: I. Wczesnym rankiem/Spójrz, jak ku gwiazdom
!!!OMV: 001
!!!PDT:
!!!AGN: Secular; Song
!!!YEC: Copyright 2022 Narodowy Instytut Fryderyka Chopina (https://polishscores.org)
!!!YEM: License CC-BY-4.0 (https://creativecommons.org/licenses/by/4.0)
!!!SMS-siglum: PL-Wumfc
!!!SMS-shelfmark: N8918
!!!SMS-variant:
!!!SMS-altvar:
!!!SMS-shelfwork: 001-001 G
!!!NIFC-rismSourceID: 1001170644
!!!NIFC-rismChildID: 1001170645
!!!NIFC-islandoraID: pl-wumfc:7726
!!!URL-pdf-islandora: https://repozytorium.nifc.pl/islandora/object/pl-wumfc%3A7726/datastream/PDF/view
!!!URL-scan: https://polish.musicsources.pl/pl/lokalizacje/galeria/druki-muzyczne/12685/2 @EN{Scan on Polish Music Sources Website} @PL{Skany w portalu Dziedzictwo Muzyki Polskiej w otwartym dostępie}
!!!IIIF:
!!!ONB-nifc: UWAGA: str. 2.
!!!AIN: 1 canto 1 piano
!!!key: none
**kern	**kern	**dynam	**kern	**text	**text	**dynam
*part2	*part2	*part2	*part1	*part1	*part1	*part1
*staff3	*staff2	*staff2/3	*staff1	*staff1	*staff1	*
*group2	*group2	*	*group1	*	*	*
*IGacmp	*IGacmp	*	*IGsolo	*	*	*
*ICklav	*ICklav	*	*ICvox	*	*	*
*Ipiano	*Ipiano	*	*Icanto	*	*	*
*I"Piano.	*I"Piano.	*	*I"Canto.	*	*	*
*I'	*I'	*	*I'	*	*	*
*clefF4	*clefG2	*	*clefG2	*	*	*
*k[b-e-]	*k[b-e-]	*	*k[b-e-]	*	*	*
*b-:	*b-:	*	*b-:	*	*	*
*M4/4	*M4/4	*	*M4/4	*	*	*
*met(c)	*met(c)	*	*met(c)	*	*	*
=1	=1	=1	=1	=1	=1	=1
*	*^	*^	*	*	*	*
!!LO:TX:a:B:t=Andante ma non troppo;_ poco rubato.
!	!	!	!LO:DY:b	!	!	!	!	!
4BBB- 4BBBB-/	(8b-L 8d/	4ryy	pp	.	4r	.	.	.
.	8dd/J)	.	.	.	.	.	.	.
(2B-\	(4gg-X 4g-X/	(>8dd\L	<	.	[4dd^^\	Sieh,_	Spójrz,_	.
.	.	8dd-X\J)	.	.	.	.	.	.
.	4ggn 4gn/	(>8dd-\L	.	.	8dd\]	.	.	.
.	.	8cc\J)	.	.	8r	.	.	.
4BB-/)	4aa-X 4a-X/)	(>8cc\L	.	.	8cc\	wie	jak	.
.	.	[>8cc-X\J)	.	.	8cc-X\	wir	ku	.
*	*	*	*v	*v	*	*	*	*
=2	=2	=2	=2	=2	=2	=2	=2
*	*	*	*^	*	*	*	*
!	!	!	!	!	!	!	!	!LO:DY:a
4GG-X 4GGG-X/	(8cc-X]L 8a-X\	4ryy	.	.	8cc-X\	zu	gwia-	<
!	!	!	!	!LO:HP:a	!	!	!	!
.	8aa-X\J)	.	.	<	8b-\	den	-zdom	.
(2f-X 2B-X\	(4bb- 4b-/	(8gg\L	.	.	2ff-X\	Ster-	wciąż	.
.	.	8gg-X\J)	.	.	.	.	.	.
.	4bbn 4bn/	(8gg-\L	.	.	.	.	.	.
.	.	8ff\J)	[	.	.	.	.	.
!	!	!LO:TX:b:i:t=rit.	!	!	!	!	!	!
4F-X\)	[4ccc [<4cc-/	(>8ff\L	.	.	(8ccn\L	-nen	się	.
.	.	8een\J)	.	.	8cc#X\J)	.	.	.
*	*	*	*v	*v	*	*	*	*
*	*v	*v	*	*	*	*	*
=3	=3	=3	=3	=3	=3	=3
*^	*	*	*	*	*	*
!	!	!	!	!	!	!	!LO:DY:a:t=(%s)
!	!	!	!	!	!	!	!LO:HP:a
8FF 8FFF/	8ryy	8ccc] 8ee-X 8cc-\])	.	4.dd\	auf-	wzno-	mp >
*clefG2	*	*	*	*	*	*	*
!	!	!LO:TX:b:i:t=legatissimo dim.	!	!	!	!	!
(8d-X/L	[4.d-\	(8gggL 8bb-\	>	.	.	.	.
8f/	.	8fff 8aa\	.	.	.	.	.
8cc-X/	.	8eee- 8gg\	.	4.ff\	-stei-	-si-	.
.	.	.	.	.	.	.	]
8dd-X/J)	8d-\]	8aaJ 8ff\)	.	.	.	.	.
(8A/L	[4.An\	(8eee-XL 8gg-X\	.	.	.	.	.
8c#X/	.	8ddd-X 8ff\	.	4ee-\	-gen!	-my!	.
8g/	.	8ccc-X 8ee-\	.	.	.	.	.
!!LO:LB:g=original
=4	=4	=4	=4	=4	=4	=4	=4
*	*^	*^	*	*^	*	*	*
8an/)J	8A\]	4ryy	8ff 8dd-X\)J	2ryy	.	4r	4ryy	.	.	.
(8F/L	[4.F\	.	(8bbnL 8ddn\	.	]	.	.	.	.	.
8A/	.	[<4A\	8aan 8cc#X\	.	.	8cc#X/	8cc#\L	Un-	Nasz	.
!	!	!	!	!	!	!	!	!	!	!LO:DY:a
8e-X/J	.	.	8ggnJ 8bn\	.	.	8bn/	8b\J	-sern	.	<
8f/L	2A] 2F\]	2ryy	4.cc#X/	8a\L	<	(8an/L	4ryy	glück-	wzrok	.
!LO:TX:a:i:t=rall.	!	!	!	!	!	!	!	!	!	!
8en/J	.	.	.	8b-X\J	.	8b-X/J)	.	.	.	.
*	*	*	*	*	*	*Xbrackettup	*	*	*	*
!	!	!	!	!	!	!LO:TUP:a:problem:klamra łukowa	!	!	!	!
4e-X/)	.	.	.	4bn 4g\	.	12bn\	4ryy	-strah-	pro-	[
.	.	.	.	.	.	12b\	.	-len-	-mien-	.
.	.	.	8ff/)	.	.	.	.	.	.	.
.	.	.	.	.	[	12cc#\	.	-den	-ny	.
*v	*v	*v	*	*	*	*	*	*	*	*
*	*v	*v	*	*	*	*	*	*
*clefF4	*	*	*	*	*	*	*
=5	=5	=5	=5	=5	=5	=5	=5
*^	*^	*	*	*	*	*	*
*	*	*	*^	*^	*	*	*	*	*
!!LO:TX:a:i:t=a tempo
4BBB- 4BBBB-^^/	4.ryy	(4ee-^^/	(>8d\L	[<4d/	<	.	(4ee-^^\	2ryy	Au-	szczę-	.
.	.	.	8g\J	.	[	.	.	.	.	.	.
8r	.	(<8ddL 8d]/)	4f#X\	4ryy	>	.	8dd\)	.	-gen	-ściem	.
(4B-/	8B-\L	8dd-XJ 8d-X/)	.	.	.	.	8r	.	.	.	.
!	!	!	!	!	!	!	!	!	!	!	!LO:DY:a
.	8BB-\J)	(<8dd-L 8d-/	4g\	2ryy	.	.	4g/	8r	leuch-	.	<
(<8F/L	4F\	8ccJ 8c/)	.	.	.	.	.	8g\	.	o-	.
8FF/J)	.	(<8ccL 8c/	4a-X\)	.	.	.	8a-X/	4ryy	-tet	-lśnie-	.
8BB- 8BBB-/	8ryy	8cc-XJ 8c-X/)	.	.	.	.	8an/	.	der	-wa	.
*	*	*	*	*	*v	*v	*	*	*	*	*
*	*	*	*v	*v	*	*	*	*	*	*
*	*	*	*	*	*v	*v	*	*	*
=6	=6	=6	=6	=6	=6	=6	=6	=6
*	*	*	*	*^	*	*	*	*
4GG-X 4GGG-X/	4.ryy	4een 4en/	8e\L	]	.	4b-\	Schnee	bie-	.
.	.	.	8ccn\J	<	.	.	.	.	.
8r	.	(<8ggL 8g/	(>4b-\	.	.	8b-\	der	-lą	.
!	!	!	!	!	!	!	!	!LO:SIC:v:s=śnieg	!
(4f-X/	8f-\L	8gg-XJ 8g-X/)	.	.	.	8gn/	Ge-	snieg	.
!	!	!	!	!	!LO:HP:a	!	!	!	!
.	8F-X\J)	(<8gg-L 8g-/	4cc-X\	.	<	4cc-X\	-bir-	szczy-	.
(<8B-/L	4B-\	8ffJ 8f/)	.	.	.	.	.	.	.
8BB-/J)	.	8ffL 8f/	8ccn\L	.	.	4ccn\	-ge,	-tów.	[
!	!	!LO:TX:b:i:t=rit.	!	!	!	!	!	!	!
(8GG- 8GGG-/L	8ryy	(8ff-XJ (8f-X/	8cc#X\J)	[	.	.	.	.	.
*	*	*	*	*v	*v	*	*	*	*
!!LO:LB:g=original
=7	=7	=7	=7	=7	=7	=7	=7	=7
*	*	*	*	*	*^	*	*	*
!	!	!	!	!LO:DY:t=sub. %s	!	!	!	!	!
8DDn 8DDDn/)J	8ryy	8een 8en/))	8ccn 8g#X\	ppp	2r	2.ryy	.	.	.
*clefG2	*	*	*	*	*	*	*	*	*
!LO:TX:t=P:problem:- w nawiasie	!	!	!	!	!	!	!	!	!
(8B-/L	[4.B-X\	(8eeenL 8gg#X\	8ryy	.	.	.	.	.	.
8d/	.	8dddn 8ff#X\	4ryy	>	.	.	.	.	.
8a-X/	.	8ccc 8een\	.	.	.	.	.	.	.
!LO:TX:t=P:problem:- w nawiasie	!	!	!	!	!	!	!	!	!
8b-X/J)	8B-\]	8ff#J 8dd\)	2ryy	]	4r	.	.	.	.
*clefF4	*	*	*	*	*	*	*	*	*
[<4.F#X/	(>8F#\L	(8cccL 8ee\	.	<	.	.	.	.	.
!	!	!	!	!	!	!	!	!	!LO:HP:a
!	!	!LO:TX:t=P:problem:- w nawiasie	!	!	!	!LO:TX:t=P:problem:- w nawiasie	!	!	!LO:DY:a:rj
.	8A#X\	8bb-X 8dd\	.	.	4b-/	8b-X\	bald	Wnet	pp <
.	8en\	8aa-X 8cc\	.	[[	.	8b-\	.	się	.
=8	=8	=8	=8	=8	=8	=8	=8	=8	=8
*	*^	*	*	*	*	*	*	*	*
8ryy	8f#XJ 8F#\])	4ryy	8ddJ 8b-\)	2ryy	.	4.dd\	2ryy	blitzt	z mgieł	[
8D/L	([4.Dn\	.	(8gg#XL 8b#X\	.	>	.	.	.	.	.
8F#X/	.	[<4F#\	8ff#X 8a#X\	.	.	.	.	.	.	.
!	!	!	!	!	!	!LO:TX:t=P:problem:n w nawiasie	!	!	!	!
8cn/J	.	.	8eenJ 8g#X\	.	]	8ccn\	.	dort	wy-	.
!LO:TX:t=P:problem:n w nawiasie	!	!	!LO:TX:b:i:t=rit.	!	!	!	!	!	!	!
8dn/L	2F#] 2D\]	2ryy	4.a#X/)	(>8f#X\L	.	4b-\	4ryy	un	-nu-	.
8c#X/J	.	.	.	8gn\J	<	.	.	.	.	<
4cn/)	.	.	.	4g#X 4en\)	.	8a-X/	8a-\L	ten	-rzą	.
!	!	!	!LO:TX:t=P:problem:- w nawiasie	!	!	!	!LO:TX:t=P:problem:- w nawiasie	!	!	!
.	.	.	([8ee-X^/	.	[[	8ee-/	8ee-X\J	die	.	.
*	*v	*v	*	*	*	*v	*v	*	*	*
=9	=9	=9	=9	=9	=9	=9	=9	=9
!!LO:TX:a:B:t=Avvivando. (poco più mosso)
!LO:TX:t=P:problem:mixed beam	!	!	!	!	!	!	!	!LO:HP:a
(8DD-XL 8DDD-X/	2ryy	8ee-]L 8cc-X 8fn\	2.ryy	mp <	4.ff\	Son-	łą-	>
8D-X\	.	8ddn 8f#X\	.	.	.	.	.	.
8c-X\	.	8ffn 8gn\	.	.	.	.	.	.
8A-X\J	.	8eenJ 8g#X\	.	.	8een\	-ne	-ki	.
!LO:TX:t=P:problem:mixed beam	!	!	!	!	!	!	!	!
8f\L)	4ryy	8aanL 8bn\	.	.	4.ee-X\	durch.	hal.	]
(>8FFJ 8FFF/	.	8aa-XJ 8ccn\)	.	[ mf	.	.	.	.
!	!	!LO:TX:a:i:t=ten.	!	!	!	!	!	!
(8a-X/L	4cn\	[4cccn/	8dd\L	.	.	.	.	.
8dn/J))	.	.	8dd#X\J	.	8r	.	.	.
!!LO:LB:g=original
=10	=10	=10	=10	=10	=10	=10	=10	=10
!	!	!LO:S:s=1:note:problem=note-level slur	!	!	!	!	!	!
(8EEn:L 8EEEn:\	2ryy	8ccc]L (8een\	2.ryy	.	4r	.	.	.
!	!	!LO:TX:b:i:t=cresc.-:ext=ud:problem:text with extention lines	!	!	!	!	!	!
8En\	.	8ffnJ 8a\	.	<	.	.	.	.
8dn\	.	8gg#XL 8b-\	.	.	2ddn\	O!	O!	.
8Bn\J	.	8ggnJ 8bn\	.	.	.	.	.	.
!LO:TX:t=P:problem:mixed beam	!	!	!	!	!	!	!	!
8g#X\L)	4ryy	8cccL 8dd\	.	.	.	.	.	.
(>8AA-XJ 8AAA-X/	.	8bbnJ 8ee-X\)	.	[	.	.	.	.
!	!	!LO:TX:a:i:t=ten.	!	!	!	!	!	!
8cc-X/L	4e-X\	[4eee-X/	8ff\L	.	8r	.	.	.
!!LO:TX:a:i:t=rit.
!	!	!LO:TX:b:i:t=rit.	!	!	!	!	!	!
8f/J)	.	.	8ff#X\J	.	8cc-X\	Schon	Jak	.
*v	*v	*	*	*	*	*	*	*
=11	=11	=11	=11	=11	=11	=11	=11
*	*	*	*	*^	*	*	*
!	!	!	!	!	!LO:TX:t=P:problem:- w nawiasie	!	!	!
8GG: 8GGG:/	8eee-/]	8gg\	.	8.ee-/	(8.ee-X\L	rö-	pło-	.
!	!LO:TX:t=P:problem:kasowniki w nawiasie	!	!	!	!	!	!	!
(8E-X\L	(8aaanL 8fffn 8ccc#X\	8ryy	f	.	.	.	.	.
.	.	.	.	16dd/	16dd\Jk)	-ten	.	.
!	!LO:TX:t=P:problem:- w nawiasie	!	!	!	!	!	!	!
8d-X\	8ggg 8eee-X 8bbn\	4ryy	>	4dd-X/	8dd-\	sich	-ną	.
8g\	8fff 8ccc# 8aa\	.	.	.	8g\	.	do-	.
!	!	!	!	!	!	!	!	!LO:DY:a
8dd-X\J)	8bbJ 8gg\)	2ryy	.	4gn/	2ryy	Tie-	-li-	<
(8BBn\L	(8fffL 8ccc# 8aa\	.	.	.	.	.	.	.
8An\	8eee- 8bb 8gg\	.	.	8a/	.	-fen	-ny	.
8d#X\	8ccc# 8aa 8ff\	.	.	8bn\	.	und	i	[
=12	=12	=12	=12	=12	=12	=12	=12	=12
*	*	*	*	*cue	*	*	*	*
!	!	!	!	!LO:TX:a:rj:t=ossia	!LO:TX:t=P:problem:- w nawiasie	!	!	!LO:DY:b:rj
8a\J)	8ggJ 8ee-X\)	2ryy	.	2.ggnX/	2.ee-X\	Hö-	szczy	pp
*	*	*	*	*Xcue	*	*	*	*
(8GG/L	(8ccc#XL 8aa 8ff\	.	>	.	.	.	.	<
8Fn/	8bbn 8ggn 8ee-X\	.	.	.	.	.	.	.
8Bn/J	8aaJ 8ff 8cc#X\	.	.	.	.	.	.	.
8g\L	4.ee-X/	(>8bn\L	.	.	.	.	.	.
8f#X\	.	8ccn\J	.	.	.	.	.	[
!	!LO:TX:b:i:t=rit.	!	!	!	!	!	!	!
8fn\	.	4cc#X 4a\))	.	4ryy	4dd-X\	-hen;	ty;	.
8G\J)	([8aa-X^/	.	.	.	.	.	.	.
*	*	*	*	*v	*v	*	*	*
!!LO:PB:g=original
=13	=13	=13	=13	=13	=13	=13	=13
*^	*	*	*	*	*	*	*
!!LO:TX:a:i:t=avvivando
!	!	!	!	!LO:DY:t=%s avviv.	!	!	!	!
(8FF#XL: 8FFF#X:\	2.ryy	8gg#X]L 8een 8a#X\	2.ryy	p	8g#X/	durch	Hen	.
8c#X 8En\	.	8ggnJ 8bn\	.	.	8gn/	den	tam	.
8en 8F#X\	.	8aa#XL 8b#X\	.	.	4a#X/	Rauch	w gó-	.
!	!	!LO:TX:b:i:t=molto	!	!	!	!	!	!
8f#XJ 8c#X\	.	8aanJ 8cc#X\	.	.	.	.	.	.
!LO:TX:t=P:problem:- w nawiasie	!	!	!	!	!	!	!	!
!LO:TX:t=P:problem:mixed beam	!	!	!	!	!	!	!	!LO:DY:a
8b-XL 8dn\)	.	8dddnL 8een\	.	.	8ddn\	uns-	-rze,	<
!LO:TX:t=P:problem:- w nawiasie	!	!	!	!	!	!	!	!
(8BB-XJ 8BBB-X/	.	8ddd-XJ 8ffn\)	.	.	8cc#X\	-rer	nad	.
8dd-X/L	4fn 4d-X\	[4fffn/	8gg\L	sf	[4ffn\	A-	mgłą_	.
8gn/J)	.	.	8gg#X\J	.	.	.	.	.
=14	=14	=14	=14	=14	=14	=14	=14	=14
(8AAnL 8AAAn/	2.ryy	8fffnX]L 8aan\	2.ryy	<	8ff\]	.	.	.
*clefG2	*	*8va	*	*	*	*	*	*
8enJ 8Gn/	.	(8bb-XJ 8ddn\	.	.	8b-X\	-tem-	od-	.
8gnL 8An/	.	8ccc#XL 8dd#X/	.	.	4dd-X\	-zü-	-de-	[
8anJ 8en/	.	8cccnJ 8een/	.	.	.	.	.	.
8dd-XL 8fn/)	.	8fffnL 8ggn\	.	.	8dd-\	-ge,	-chów,	.
*clefF4	*	*	*	*	*	*	*	*
8D-XJ 8DD-X/	.	8eeenJ 8aa-X\)	.	.	8r	.	.	.
*clefG2	*	*	*	*	*	*	*	*
8ff-X/L	4a-X 4f-X\	[4aaa-X/	8bb-X\L	f	8r	.	.	.
8b-X/J	.	.	8bbn\J	.	8bn\	bis	o-	.
*v	*v	*	*	*	*	*	*	*
*clefF4	*	*	*	*	*	*	*
=15	=15	=15	=15	=15	=15	=15	=15
8CC 8CCC/	8aaa-/]	8ccc\	f	4ccn\	ü-	-stat-	.
*clefG2	*	*	*	*	*	*	*
(8A-X/L	(8ddddnL 8bbb-X 8fff#X 8dddn\	8ryy	.	.	.	.	.
8g-X/	8ccccn 8aaa-X 8eeen 8cccn\	4ryy	.	8cc\	-ber	-nich	.
8ccn/	[8bbb- 8fff# 8ddd [8bb-X\	.	.	8ddn\	das	i-	.
!	!LO:TX:t=cresc.-:ext=ud:problem:text with extention lines	!	!	!	!	!	!
8gg-X/J)	8bbb-J] 8eeen 8cccn 8bb-\])	2ryy	<	(4een\	fern-	-skrzą-	.
*clefF4	*	*	*	*	*	*	*
(8AAnL 8AAAn/	(8bbb-L 8fff# 8ddd 8bb-\	.	.	.	.	.	.
8Fn/	8aaan 8fffn 8ccc#X 8aan\	.	.	8a/)	.	-cych	.
!	!	!	!	!	!	!LO:SIC:v:s=się	!
8e-/	[8gggnJ 8eee-X 8bbn [8ggn\	.	[[	8bn/	-ste	sie	.
*clefG2	*	*	*	*	*	*	*
!!LO:LB:g=original
=16	=16	=16	=16	=16	=16	=16	=16
*^	*	*	*	*^	*	*	*
!	!	!	!	!	!	!	!	!	!LO:DY:a
8ee-X 8anX/)J	2ryy	8ggg 8ccc#X 8aan 8gg\])	2.ryy	.	4.cc#X\	2ryy	Fünk-	blas-	.
*clefF4	*	*	*	*	*	*	*	*	*
!	!	!	!	!	!	!LO:TX:t=cre-scen-do:ext=ud:problem:text with extention lines	!	!	!
(8FF#XL 8FFF#X/	.	(8gggnL 8eee-X 8bbn 8ggn\	.	.	.	.	.	.	<
8Dn/	.	8fff#X 8ddd 8bb- 8ff#X\	.	.	.	.	.	.	.
8cn/	.	[8eeen 8cccn 8gg#X [8een\	.	.	8dd\	.	-chen	-ków	.
8ccnJ 8f#X/)	8ryy	8eee]J [<8aa#X 8ff#X 8ee\])	.	.	8een\	4.ee/	dort	gwiazd	.
!	!LO:S:s=1:note:problem=note-level slur	!	!	!	!	!	!	!	!
!	!LO:S:s=2:note:problem=note-level slur	!	!	!	!	!	!	!	!
8ryy	(<4GGn (4GGGn^^>\	(4ccc#X 4aa#] 4een 4cc#X^^/	.	ff	4ee\	.	o-	.	.
!	!	!LO:TX:b:i:t=rit.	!	!	!	!	!	!	!
4en 4En^^/	.	.	4ee 4dd\	.	.	.	.	.	.
!	!LO:S:s=1:note:problem=note-level slur	!	!	!	!	!	!	!	!
!	!LO:S:s=2:note:problem=note-level slur	!LO:TX:t=P:problem:uwaga - ligatury	!	!	!	!	!	!	!
.	8GG#X 8GGG#X\))	[8bbn [<8bn/)	.	.	8ee\	8ee/	-ben	da-	.
*	*	*X8va	*	*	*	*	*	*	*
*	*	*	*	*	*v	*v	*	*	*
=17	=17	=17	=17	=17	=17	=17	=17	=17
(>8AAnL 8AAAn/	8ryy	(8bbn] 8bn/]	2.een 2.cc#X\	>	4.een\	fern	-le-	.
8En/	[4.E\	4bb-X 4b-X/	.	.	.	.	.	.
8Gn/	.	.	.	.	.	.	.	.
8G#X/J	.	4aan 4an/	.	]	8cc#X\	hin-	-ko	[
!	!	!LO:TX:b:i:t=rall.	!	!	!	!	!	!
8A/L	4.E\]	.	.	.	4.an/	-auf	wzwyż!	.
8c/J	.	4aa-X 4a-X/	.	<	.	.	.	.
4c#X/)	.	.	4ee-X 4an\	.	.	.	.	.
.	8Fn\	[8ggn [<8gn/	.	[[	8r	.	.	.
=18	=18	=18	=18	=18	=18	=18	=18	=18
!!LO:TX:a:B:t=Tempo
!	!	!	!	!LO:DY:t=%s (sempre)	!	!	!	!
[4BB- [4DD [4BBB-^^/	4.ryy	4gg] 4g/])	8b-L 8d\	ff	8r	.n	.	.
.	.	.	8dd\J	.	[8b-\	Schim-	Wid-	.
!	!	!	!	!	!LO:TUP:a:problem:klamra łukowa	!	!	!
8BB-] 8DD] 8BBB-/]	.	(4gg-X 4g-X/	(>8dd\L	<	12b-\]	.	.	.
.	.	.	.	.	12b-\	-mert	-nie-	.
4B-/	(>8f\L	.	8dd-X\J)	.	.	.	.	.
.	.	.	.	.	12dd-X\	die	-je	.
!	!	!	!	!	!LO:TX:t=P:problem:n w nawiasie	!	!	!LO:DY:a
.	8F\J)	4ggn 4gn/	(>8dd-\L	.	[2ggn\	Nacht_	noc_	ff
([>8BB-/	4.ryy	.	8cc\J)	.	.	.	.	.
4BB-] 4BBB-/)	.	4aa-X 4a-X/)	(>8cc\L	.	.	.	.	.
.	.	.	[>8cc-X\J)	.	.	.	.	.
!!LO:LB:g=original
=19	=19	=19	=19	=19	=19	=19	=19	=19
[4GG-X [4BBB- [4GGG-X^^/	4.ryy	(8cc-X]L 8a-X\	4ryy	.	4gg\]	.	.	.
.	.	8aa-X\J)	.	.	.	.	.	.
8GG-] 8BBB-] 8GGG-/]	.	(4bb- 4b-/	(8gg\L	.	4gg\	dei-	na-	.
4B-/	(>8f-X\L	.	8gg-X\J)	.	.	.	.	.
.	8F-X\J)	4bbn 4bn/	(>8gg-\L	.	4.gg-X\	-ner	-ro-	.
([>8GG-X/	4.ryy	.	8ff\J)	.	.	.	.	.
4GG-] 4GGG-X/)	.	[4cccn [<4ccn/)	(>8ff\L	[	.	.	.	.
.	.	.	8een\J)	.	8ff-X\	Ge-	-dzin	.
*v	*v	*	*	*	*	*	*	*
=20	=20	=20	=20	=20	=20	=20	=20
!	!LO:TX:b:i:t=passion.	!	!	!	!	!	!
8FF 8AAA 8FFF/	8ccc] 8cc/]	8ee-X\	.	4.an/	-burt,	twych,	.
*clefG2	*	*	*	*	*	*	*
(8fL 8d 8G#X/	(8gggnL 8bbn 8gg#X\	8ryy	.	.	.	.	.
8g-X [8e- 8A/	8fff 8ccc 8aa\	4ryy	.	.	.	.	.
[<8a 8e-] 8c/	[8eee- [8ccc [8gg-X\	.	.	4r	.	.	.
8ccJ 8a] 8e-/)	8eee-]J 8ccc] 8aa 8gg-] 8ee-\)	2ryy	>	.	.	.	.
*clefF4	*	*	*	*	*	*	*
!	!	!	!	!	!	!LO:SIC:v:s=świ-	!
(8FFL 8FFF/	(8fffL 8aa 8gg-\	.	.	4ee-X\	glänzt	swi-	.
8en [8d-X 8G#/	8eee-X [8ggn 8een\	.	.	.	.	.	.
8g-J 8d-] 8B-/)	8ddd-XJ 8gg] 8dd-X\)	.	]	8dd-X\	der	-ta	.
=21	=21	=21	=21	=21	=21	=21	=21
!	!	!	!	!LO:TX:t=P:problem:n w nawiasie	!	!	!
8FF 8FFF/	(>8ee-XL 8a-X 8en/	4ryy	mf <	4ccn\	Tag	nam	.
(8D-X\L	8dd-XJ 8an 8fn/	.	.	.	.	.	.
!	!	!	!	!	!	!	!LO:DY:a
8B-\	8ffL 8g-X/	4dd-X\	.	2b-X\	uns-	wnie-	<
8G\J	8eenJ 8gn/	.	.	.	.	.	.
8e-\L	8aa-XL 8dd-X 8an/	4ryy	.	.	.	.	.
8c\	8gg-XJ 8ddn 8b-X/)	.	.	.	.	.	.
!	!LO:TX:b:i:t=molto	!	!	!	!	!	!
8g-X\J)	[4bb-^^/	8ee-XL 8cc-X\	.	4ee-X\	-rer	-bo	.
(>[8FF/L	.	8eenJ [8ccn\	.	.	.	.	[[
!!LO:LB:g=original
=22	=22	=22	=22	=22	=22	=22	=22
!	!LO:TX:b:i:t=cresc. e rall.	!	!	!	!	!	!LO:DY:a
8FF] 8FFF/)J	8bb-]L 8ff 8ee-X 8cc\]	2.ryy	.	2.gg-X\	Him-	wzię-	.
8c-XL 8E-X\	(8aa-XJ 8ee- 8cc-X\	.	.	.	.	.	>
8e- 8F\	8bb-L 8ff 8dd-X\	.	.	.	.	.	.
*clefG2	*	*	*	*	*	*	*
8aJ 8cn\	8aanJ 8ff#X 8ddn\	.	.	.	.	.	.
!LO:TX:t=P:problem:- i  n w nawiasie	!	!	!	!	!	!	!
8b-XL 8gn 8c#X/	8cccL 8ggn 8een\	.	.	.	.	.	.
!LO:TX:t=P:problem:dn w nawiasie	!LO:TX:t=P:problem:- w nawiasie	!	!	!	!	!	!
8bn 8a-X 8dn/	8bb-XJ 8ffn 8dd\	.	.	.	.	.	.
!LO:TX:t=P:problem:- w nawiasie	!	!	!	!	!	!	!
8ccJ 8an 8e-X/	8bbnL 8gg-/	4ee-X\	.	4ff\	-mel-	-cia	]
*clefF4	*	*	*	*	*	*	*
(8FF 8FFF/	8cccJ 8ff/	.	[	.	.	.	.
=23	=23	=23	=23	=23	=23	=23	=23
*^	*	*	*	*	*	*	*^
!	!	!	!	!LO:DY:t=%s sub.	!	!	!	!LO:DY:a	!
[<4BBB- [4BBBB-/)	4.ryy	4ddd 4bb-X 4ff 4dd\)	4ryy	ff	2.dd\	-fahrt.	dzień.	>	.
!	!	!LO:TX:a:B:t=Tempo I.	!	!	!	!	!	!	!
8BBB-] 8BBBB-/]	.	(<8ddL 8d/	(>4g-X\	ppp <	.	.	.	.	.
!	!	!	!	!	!	!	!	!	!LO:HP:a
(<8B-/L	4B-\	8dd-XJ 8d-X/)	.	.	.	.	.	.	>
8BB-/J)	.	(<8dd-L 8d-/	4gn\	.	.	.	.	.	.
(<8F/L	4F\	8cc 8c/)J	.	.	.	.	.	.	.
8FF/J)	.	(<8cc 8c/L	[4a-X\)	.	4r	.	.	]	.
([8BBB-/L	8ryy	[8cc-XJ [<8c-X/)	.	.	.	.	.	.	.
*	*	*	*	*	*	*	*	*v	*v
=24	=24	=24	=24	=24	=24	=24	=24	=24
8BBB-_ [8BBBB-/)J	4.ryy	4cc-] 4a-] 4c-/]	4ryy	[	1r	.	.	.
4BBB-] 4BBBB-/]	.	.	.	.	.	.	.	.
.	.	(<8aa-XL 8a-X/	(>4cc-X\	>	.	.	.	.
4d/	(>8d\L	8ggJ 8g/)	.	.	.	.	.	.
!	!	!LO:TX:b:i:t=dimin. e rall.:dur=7e:ext=s:problem:text with extention lines	!	!	!	!	!	!
.	8D\J)	(<8ggL 8g/	4ccn\	.	.	.	.	.
(<8A-X/L	4A-\	8gg-X 8g-X/)	.	.	.	.	.	.
8AA-X/J)	.	(<8gg- 8g-/	[<4dd\)	.	.	.	.	.
[>8BBB-/	8ryy	[8ffJ [<8f/)	.	.	.	.	.	.
*v	*v	*	*	*	*	*	*	*
*	*v	*v	*	*	*	*	*
=25	=25	=25	=25	=25	=25	=25
4BBB-] 4BBBB-/	4ff] 4dd] 4f/]	]	1r	.	.	.
(4Bn 4G#X\	(4een 4bn 4en/	>	.	.	.	.
4c 4A\)	4ee-X 4ccn 4g-X\)	.	.	.	.	.
(4d 4B-X\	(4dd 4b-X 4f/	]]	.	.	.	.
=26	=26	=26	=26	=26	=26	=26
1BBB- 1FFF 1BBBB-;<)	1bbb- 1fff 1ddd 1bb-;)	pppp	1r;	.	.	.
==	==	==	==	==	==	==
*-	*-	*-	*-	*-	*-	*-
!!!system-decoration: g1{(g2)}
!!!RDF**kern: i = editorial accidental
!!!RDF**kern: > = above
!!!RDF**kern: < = below
!!!RDF**kern: N = linked
!!!RDF**dynam: > = "dim.", fontstyle= "italic"
!!!ENC: Andrzej Gręziak
!!!EED: Katarzyna Serwa
!!!END: 2023-09-25
!!!EEV: 2023-10-25
